static/logos/counfluence-wordmark-color.svg

<svg width="100" height="13" viewBox="0 0 100 13" fill="none" xmlns="http://www.w3.org/2000/svg">
<g clip-path="url(#clip0_1_3163)">
<path d="M26.3161 11.7418C25.6096 12.2075 24.4902 12.413 23.32 12.413C19.6018 12.413 17.5 10.1743 17.5 6.61068C17.5 3.16645 19.6018 0.755493 23.2867 0.755493C24.3885 0.755493 25.4902 0.96293 26.3004 1.53827V3.03729C25.4902 2.52066 24.5959 2.25451 23.2867 2.25451C20.635 2.25451 19.0499 4.01577 19.0499 6.61068C19.0499 9.20559 20.6859 10.9336 23.3728 10.9336C24.3924 10.9429 25.3992 10.7066 26.3082 10.2447L26.3161 11.7418Z" fill="#253858"/>
<path d="M27.3984 7.9218C27.3984 5.33863 28.9131 3.46191 31.4963 3.46191C34.0795 3.46191 35.5609 5.33863 35.5609 7.9218C35.5609 10.505 34.0618 12.4228 31.4963 12.4228C28.9307 12.4228 27.3984 10.505 27.3984 7.9218ZM28.8446 7.9218C28.8446 9.5578 29.6548 11.0392 31.4963 11.0392C33.3378 11.0392 34.1147 9.5578 34.1147 7.9218C34.1147 6.28579 33.3319 4.83961 31.4982 4.83961C29.6646 4.83961 28.8485 6.28579 28.8485 7.9218H28.8446Z" fill="#253858"/>
<path d="M44.608 12.2446H43.1266V7.04503C43.1266 5.49513 42.5063 4.80628 41.0953 4.80628C39.7255 4.80628 38.7705 5.71822 38.7705 7.45794V12.2446H37.2891V3.63407H38.7705V5.04699C39.0341 4.55798 39.4274 4.15125 39.9075 3.87156C40.3873 3.59188 40.9352 3.4501 41.4906 3.46186C43.4711 3.46186 44.608 4.83172 44.608 7.19963V12.2446Z" fill="#253858"/>
<path d="M48.7321 3.6341H50.9532V5.00396H48.7321V12.2447H47.2859V5.00396H45.8906V3.6341H47.2859V2.68694C47.2859 1.08616 48.1822 5.53225e-05 50.0257 5.53225e-05C50.3632 -0.00182627 50.6992 0.0442977 51.0237 0.137042V1.5069C50.7172 1.44864 50.4061 1.41981 50.0941 1.4208C49.1822 1.4208 48.7243 1.95505 48.7243 2.72999L48.7321 3.6341Z" fill="#253858"/>
<path d="M54.8541 12.2955C53.4412 12.2955 52.5469 11.6243 52.5469 10.0392V0.0352783H54.0283V9.86697C54.0283 10.6498 54.5449 10.9179 55.1829 10.9179C55.3265 10.9202 55.4704 10.9144 55.6134 10.9002V12.2271C55.3641 12.2805 55.1091 12.3035 54.8541 12.2955Z" fill="#253858"/>
<path d="M56.8672 3.63416H58.3486V8.83376C58.3486 10.3837 58.969 11.0725 60.3799 11.0725C61.7498 11.0725 62.7048 10.1606 62.7048 8.42085V3.63416H64.1901V12.2447H62.7087V10.8318C62.4451 11.3208 62.0517 11.7275 61.5717 12.0072C61.0918 12.2869 60.5439 12.4287 59.9885 12.4169C58.0081 12.4169 56.8711 11.0471 56.8711 8.68112L56.8672 3.63416Z" fill="#253858"/>
<path d="M70.5383 12.4169C67.3172 12.4169 65.9062 10.5578 65.9062 7.91594C65.9062 5.31515 67.3524 3.45605 69.9708 3.45605C72.6225 3.45605 73.689 5.2995 73.689 7.91594V8.58717H67.4053C67.6127 10.051 68.5599 10.9981 70.5912 10.9981C71.4845 10.9973 72.3706 10.8397 73.2096 10.5324V11.9022C72.5012 12.278 71.417 12.4169 70.5383 12.4169ZM67.3877 7.32885H72.192C72.1059 5.72807 71.3818 4.81418 69.9023 4.81418C68.3348 4.80439 67.5423 5.82005 67.3877 7.31907V7.32885Z" fill="#253858"/>
<path d="M82.7643 12.2446H81.2829V7.04503C81.2829 5.49513 80.6625 4.80628 79.2516 4.80628C77.8817 4.80628 76.9267 5.71822 76.9267 7.45794V12.2446H75.4453V3.63407H76.9267V5.04699C77.1903 4.55798 77.5837 4.15125 78.0637 3.87156C78.5436 3.59188 79.0915 3.4501 79.6469 3.46186C81.6273 3.46186 82.7643 4.83172 82.7643 7.19963V12.2446Z" fill="#253858"/>
<path d="M90.9152 12.0196C90.3986 12.2955 89.606 12.4109 88.8135 12.4109C85.7489 12.4109 84.3125 10.5518 84.3125 7.90996C84.3125 5.30918 85.7411 3.45008 88.8135 3.45008C89.5192 3.42693 90.2207 3.5683 90.8624 3.86299V5.23286C90.2546 4.94656 89.5888 4.80521 88.9172 4.81994C86.6784 4.81994 85.7665 6.23286 85.7665 7.90213C85.7665 9.57141 86.6961 11.0039 88.9505 11.0039C89.6162 11.0215 90.2794 10.9167 90.9074 10.6947L90.9152 12.0196Z" fill="#253858"/>
<path d="M96.718 12.4169C93.4969 12.4169 92.0859 10.5578 92.0859 7.91594C92.0859 5.31515 93.5321 3.45605 96.1505 3.45605C98.8022 3.45605 99.8687 5.2995 99.8687 7.91594V8.58717H93.583C93.7904 10.051 94.7376 10.9981 96.7689 10.9981C97.6623 10.9973 98.5486 10.8397 99.3873 10.5324V11.9022C98.6808 12.278 97.5967 12.4169 96.718 12.4169ZM93.5673 7.32885H98.3717C98.2855 5.72807 97.5615 4.81418 96.082 4.81418C94.5145 4.80439 93.7219 5.82005 93.5673 7.31907V7.32885Z" fill="#253858"/>
<path d="M0.438136 9.69275C0.310935 9.90018 0.168077 10.1409 0.046746 10.3327C-0.00545899 10.4209 -0.0209695 10.5261 0.003548 10.6256C0.0280656 10.7251 0.090654 10.8111 0.177861 10.865L2.7219 12.4305C2.76611 12.4578 2.8153 12.476 2.86662 12.4841C2.91795 12.4922 2.97037 12.49 3.02082 12.4776C3.07127 12.4652 3.11877 12.4429 3.16051 12.412C3.20225 12.381 3.23742 12.3421 3.26397 12.2974C3.36574 12.1272 3.49685 11.9061 3.63971 11.6693C4.64754 10.0059 5.66123 10.2094 7.48902 11.0822L10.0115 12.2818C10.0588 12.3043 10.1101 12.3171 10.1624 12.3194C10.2148 12.3217 10.267 12.3135 10.3161 12.2952C10.3652 12.277 10.4101 12.2491 10.4482 12.2132C10.4863 12.1772 10.5168 12.134 10.5379 12.0861L11.7493 9.34637C11.7904 9.25232 11.793 9.14586 11.7564 9.04995C11.7197 8.95406 11.6469 8.87637 11.5536 8.83365C11.0213 8.58316 9.9626 8.08414 9.00957 7.62425C5.581 5.95889 2.6671 6.06652 0.438136 9.69275Z" fill="url(#paint0_linear_1_3163)"/>
<path d="M11.844 3.47555C11.9712 3.26811 12.114 3.02741 12.2354 2.83563C12.2876 2.74741 12.3031 2.64224 12.2786 2.54269C12.254 2.44316 12.1914 2.35723 12.1042 2.30334L9.56021 0.737787C9.51567 0.707788 9.46543 0.687276 9.41264 0.677526C9.35984 0.667777 9.30559 0.668996 9.25326 0.681111C9.20095 0.693227 9.1517 0.715976 9.10855 0.747947C9.0654 0.779916 9.02931 0.820423 9.00248 0.866945C8.90072 1.0372 8.7696 1.25833 8.62675 1.49513C7.61892 3.15852 6.60522 2.955 4.77743 2.0822L2.26275 0.888472C2.21547 0.865965 2.16414 0.853176 2.11183 0.850863C2.05951 0.848552 2.00725 0.856763 1.95817 0.875012C1.90908 0.89326 1.86415 0.921174 1.82605 0.9571C1.78795 0.993027 1.75744 1.03623 1.73634 1.08417L0.524986 3.82389C0.483851 3.91794 0.481311 4.0244 0.517916 4.12031C0.554523 4.2162 0.627341 4.29389 0.720681 4.33661C1.25297 4.5871 2.31168 5.08612 3.26471 5.546C6.70111 7.2094 9.615 7.09786 11.844 3.47555Z" fill="url(#paint1_linear_1_3163)"/>
</g>
<defs>
<linearGradient id="paint0_linear_1_3163" x1="11.6808" y1="13.2387" x2="3.98413" y2="8.81604" gradientUnits="userSpaceOnUse">
<stop offset="0.18" stop-color="#0052CC"/>
<stop offset="1" stop-color="#2684FF"/>
</linearGradient>
<linearGradient id="paint1_linear_1_3163" x1="0.601307" y1="-0.0723901" x2="8.29994" y2="4.35226" gradientUnits="userSpaceOnUse">
<stop offset="0.18" stop-color="#0052CC"/>
<stop offset="1" stop-color="#2684FF"/>
</linearGradient>
<clipPath id="clip0_1_3163">
<rect width="100" height="12.5245" fill="white"/>
</clipPath>
</defs>
</svg>

<svg xmlns="http://www.w3.org/2000/svg" width="492.308" height="64" fill="none" viewBox="0 0 100 13"><g clip-path="url(#a)"><path fill="#253858" d="M26.316 11.742c-.706.465-1.826.671-2.996.671-3.718 0-5.82-2.239-5.82-5.802 0-3.445 2.102-5.856 5.787-5.856 1.102 0 2.203.208 3.013.783v1.5c-.81-.517-1.704-.783-3.013-.783-2.652 0-4.237 1.76-4.237 4.356 0 2.595 1.636 4.323 4.323 4.323a6.352 6.352 0 0 0 2.935-.69l.008 1.498ZM27.398 7.922c0-2.583 1.515-4.46 4.098-4.46 2.584 0 4.065 1.877 4.065 4.46s-1.5 4.5-4.065 4.5c-2.565 0-4.098-1.917-4.098-4.5Zm1.447 0c0 1.636.81 3.117 2.651 3.117 1.842 0 2.619-1.481 2.619-3.117s-.783-3.082-2.617-3.082c-1.833 0-2.65 1.446-2.65 3.082h-.003ZM44.608 12.245h-1.481v-5.2c0-1.55-.62-2.239-2.032-2.239-1.37 0-2.325.912-2.325 2.652v4.787h-1.48v-8.61h1.48v1.412a3.017 3.017 0 0 1 2.72-1.585c1.981 0 3.118 1.37 3.118 3.738v5.045ZM48.732 3.634h2.221v1.37h-2.22v7.24h-1.447v-7.24H45.89v-1.37h1.395v-.947c0-1.6.896-2.687 2.74-2.687a3.56 3.56 0 0 1 .998.137v1.37a4.894 4.894 0 0 0-.93-.086c-.912 0-1.37.534-1.37 1.309l.008.904ZM54.854 12.296c-1.413 0-2.307-.672-2.307-2.257V.035h1.481v9.832c0 .783.517 1.05 1.155 1.05.144.003.287-.003.43-.017v1.327c-.249.053-.504.076-.759.069ZM56.867 3.634h1.482v5.2c0 1.55.62 2.239 2.03 2.239 1.37 0 2.326-.912 2.326-2.652V3.634h1.485v8.61H62.71v-1.412a3.017 3.017 0 0 1-2.72 1.585c-1.98 0-3.118-1.37-3.118-3.736l-.004-5.047ZM70.538 12.417c-3.22 0-4.632-1.86-4.632-4.501 0-2.6 1.446-4.46 4.065-4.46 2.651 0 3.718 1.844 3.718 4.46v.671h-6.284c.208 1.464 1.155 2.411 3.186 2.411.894 0 1.78-.158 2.619-.466v1.37c-.709.376-1.793.515-2.672.515Zm-3.15-5.088h4.804c-.086-1.6-.81-2.515-2.29-2.515-1.567-.01-2.36 1.006-2.514 2.505v.01ZM82.764 12.245h-1.481v-5.2c0-1.55-.62-2.239-2.031-2.239-1.37 0-2.325.912-2.325 2.652v4.787h-1.482v-8.61h1.482v1.412a3.017 3.017 0 0 1 2.72-1.585c1.98 0 3.117 1.37 3.117 3.738v5.045ZM90.915 12.02c-.516.276-1.309.39-2.102.39-3.064 0-4.5-1.858-4.5-4.5 0-2.6 1.428-4.46 4.5-4.46a4.552 4.552 0 0 1 2.05.413v1.37a4.341 4.341 0 0 0-1.946-.413c-2.239 0-3.15 1.413-3.15 3.082 0 1.67.93 3.102 3.184 3.102a5.44 5.44 0 0 0 1.956-.31l.008 1.326ZM96.718 12.417c-3.221 0-4.632-1.86-4.632-4.501 0-2.6 1.446-4.46 4.064-4.46 2.652 0 3.719 1.844 3.719 4.46v.671h-6.286c.207 1.464 1.155 2.411 3.186 2.411a7.63 7.63 0 0 0 2.618-.466v1.37c-.706.376-1.79.515-2.669.515Zm-3.15-5.088h4.804c-.087-1.6-.81-2.515-2.29-2.515-1.567-.01-2.36 1.006-2.515 2.505v.01Z"/><path fill="url(#b)" d="M.438 9.693c-.127.207-.27.448-.391.64a.391.391 0 0 0 .13.532l2.545 1.566a.392.392 0 0 0 .542-.134l.376-.628c1.008-1.663 2.021-1.46 3.849-.587l2.522 1.2a.391.391 0 0 0 .527-.196l1.211-2.74a.392.392 0 0 0-.195-.512c-.533-.25-1.591-.75-2.544-1.21C5.58 5.96 2.667 6.067.438 9.693Z"/><path fill="url(#c)" d="M11.844 3.476c.127-.208.27-.449.391-.64a.391.391 0 0 0-.13-.533L9.56.738a.391.391 0 0 0-.558.129c-.101.17-.232.391-.375.628-1.008 1.664-2.022 1.46-3.85.587L2.263.888a.391.391 0 0 0-.527.196L.525 3.824a.391.391 0 0 0 .196.513c.532.25 1.59.75 2.544 1.209 3.436 1.663 6.35 1.552 8.579-2.07Z"/></g><defs><linearGradient id="b" x1="11.681" x2="3.984" y1="13.239" y2="8.816" gradientUnits="userSpaceOnUse"><stop offset=".18" stop-color="#0052CC"/><stop offset="1" stop-color="#2684FF"/></linearGradient><linearGradient id="c" x1=".601" x2="8.3" y1="-.072" y2="4.352" gradientUnits="userSpaceOnUse"><stop offset=".18" stop-color="#0052CC"/><stop offset="1" stop-color="#2684FF"/></linearGradient><clipPath id="a"><path fill="#fff" d="M0 0h100v12.524H0z"/></clipPath></defs></svg>
